icons/linear-new-building-flag.svg

<svg xmlns="http://www.w3.org/2000/svg" width="32px" height="32px" viewBox="0 0 32 32" version="1.1">
    <title>linear-new-building-flag</title>
    <g id="linear-new-building-flag" stroke-width="1" fill-rule="evenodd">
        <path d="M6,2 C6.55228475,2 7,2.44771525 7,3 L7,4 L27,4 C27.7986954,4 28.2750868,4.89014547 27.8320503,5.5547002 L23.202,12.499 L27.8320503,19.4452998 C28.2539898,20.0782091 27.8419811,20.9157358 27.1118423,20.9940651 L27,21 L7,21 L7,29 C7,29.5522847 6.55228475,30 6,30 C5.44771525,30 5,29.5522847 5,29 L5,3 C5,2.44771525 5.44771525,2 6,2 Z M7,19 L25.131,19 L21.1679497,13.0547002 C20.9688982,12.7561229 20.9467814,12.3771884 21.1015992,12.060754 L21.1679497,11.9452998 L25.131,6 L7,6 L7,19 Z" id="&#24418;&#29366;" fill-rule="nonzero" />
    </g>
</svg>

<svg xmlns="http://www.w3.org/2000/svg" viewBox="0 0 32 32"><path fill="currentColor" d="M6 2a1 1 0 0 1 1 1v1h20a1 1 0 0 1 .832 1.555l-4.63 6.944 4.63 6.946a1 1 0 0 1-.72 1.55L27 21H7v8a1 1 0 0 1-2 0V3a1 1 0 0 1 1-1m1 17h18.131l-3.963-5.945a1 1 0 0 1-.066-.994l.066-.116L25.13 6H7z"/></svg>
